X: 11
P: From the German.
M: 3/4
L: 1/8
K: D
E F G2 G2 | (3(FG A) G4 | c d e2 G2 | G4 F2 |
"^a tempo."D E | F2 F2 (3(EF G) | F4 d A | F3"rit." A (3(GF E) | HD4 |]


